X:1
T:Title
%%score 1 2 ( 3 4 ) 5
L:1/8
M:4/4
K:D
V:1 treble nm="Part_1"
V:2 treble nm="Part_2"
V:3 alto nm="Part_3"
V:4 alto 
V:5 bass nm="Part_4"
V:1
!f! D4 z2 (d/f/a/d'/ |: f'3) e' d'3 a | f3 e d3 A | B2 B>B (TB3 A/B/) | c4 z2 (F/A/c/f/ | %5
 a3) ^g f3 c | A3 ^G F3 C | D2 D>D (TD3 C/D/) | B4 z2 (G/B/e/g/ | b3) a g3 f | e3 d' c'3 b | %11
!f! (a2 g>)e (A2 G>)E | D2 z2 z4 | z8 |!p! a8- | a2 (^a2 b2 g2) | (f2 d2) a4 | z8 | a8- | %19
 a2 (^a2 b2 g2) | (fdcd !>!ecdg) | (fdcd !>!ecdg) | (fdcd ecdb) | (bcdb) (bcdb) | ^a2 f2 (d'4 | %25
 c'2) f2 !>!b3 b | ^a2 f2 (d4 | c2) F2 B3 (B | ^A2) z2!pp! c4- | c2 z2 c4- | (cF^EF ^GEF^A) | %31
 (^AFAc) (cAce) | (eceg) g4- |!<(! g2 e2 c2!<)! ^A2 | G2 E2 C2 ^A,2 | %35
!f! B,/C/D/E/ F/G/A/B/!<(! c/d/e/f/ g/a/b/c'/!<)! |!ff! d'4 z2 (d/f/a/d'/ | f'3) e' d'3 a | %38
 f3 e d3 A | B2 B>B (TB3 A/B/) | c4 z2 (F/A/c/f/ | a3) ^g f3 c | (f2 ^e2) z2 (F/A/c/f/ | %43
 a^g).f.c .A.F.C.f | (f2 ^e2) z2!f! (A/c/f/a/ | c'b).a.^g .f.c.A.F | ^G>AB>c d2 z (e | %47
 e').d'.c'.b .a.e.c.A | B>cd>e f2 (B/e/^g/b/ |!ff! e'd').c'.b (a^g).f.e | (dc).B.A .^G.F.E.^D | %51
 D z!p! (B,2 A,2 B,2) | (C4 B,4- | B,2) (B2 A2 E2) | (E4 ^D4) | z4 z2 e2 | (e4 ^d4 | d6) (d2 | %58
 cA^GA BGAa) | (!>!a4 d4) | z (A^GA BGAa) | (!>!a4 d4) | z (A^GA BGAe) |!p! (e2 ^d) z z (^AB=d) | %64
 (d2 c) z z (FAc) | (c2 B) z z (B,E^G) | A4 z4 | z (A^GA BGAa) | (a^gfe fedB) | (A4 c3 B) | %70
 A4 z2!pp! C2 | (F4 C2) A2 | (A4 ^G2) .^E2 | (.F2 .C2 .F2 .A2) | (A4 ^G2) .^E2 | %75
 (.F2!<(! .C2 .F2 .A2)!<)! | (c4 B2) A2 | A2 (A2 B2 ^G2) | A4 z2!pp! C2 | (F4 C2) A2 | %80
 (A4 ^G2) ^E2 | (.F2 .C2 .F2 .A2) | (A4 G2) ^E2 | (F2!<(! F2 A2 .c2)!<)! | (e4 d2) B2 | %85
!pp! (F4 ^G4 | A4 .B4 | .c4 .d4 | e8) | z4 z2!p! (^D/F/A/^d/ | f3) e ^d3 B | =c6 (F/A/^d/f/ | %92
 a3) g f3 ^d | e4 z2 (G/=c/e/g/ | =c'3) g e2 (=c/e/g/c'/ | e'3) d' b3 ^g | e3!p! f (ed).B.c | %97
 (Ac).e.a (^gf).d.e | (ce).a.c' (ba).f.^g |!f! (ea).c'.f' e'3 ^g | a3 c!p! (ed).B.c | %101
 (Ac).e.a (^gf).d.e | (ce).a.c' (ba).f.^g |!f! (ea).c'.f' e'3 ^g | a2 z2 z2!f! (c/e/a/c'/ | %105
 e'd').b.^g .e.d.c.B | A2 z2 z2 (c/e/a/c'/ |!p! e'd').b.^g .e.g.b.d' | .^g2 z2 z2 (e/g/b/d'/ | %109
 !>!e'd').b.^g .e.g.b.d' | .^g2 z2 z2 (B/e/g/b/ | e'2) e3 .d.c.B | .A.B.c.d .e.G.A.B | %113
 .c.B.c.d!f! .e.a.g.f | .e.^d.e.f .g!f!.B.c.=d | .e.^G.A.B .c.E.F.=G |!ff! !>!_B,4 z .E.F.G | %117
 A,4- A,/E/F/G/ A/B/c/d/ | e/d/c/B/ A/B/c/d/ e/f/g/a/ b/c'/d'/e'/ | f'4 z2 d/f/a/d'/ :| %120
 f'3 e' ^d'3 a | f3 e ^d3 A | F2 F>F (TF3 E/F/) | A4 z2 (A/=c/e/a/ | =c'3) a f3 _e | %125
!>(! =c3 A F3 _E!>)! |!p! D2 D>D (TD3 C/D/ | =c8) | D2 D>D (TD3 C/D/ | =c8- | c2) z2 z4 | z8 | %132
!p! =c8- | c2 (^c2 d2 A2) | (B2 G2) d4- | d2 z2 z4 | z8 | z8 | z8 | z8 | e8- | e2 (^e2 f2 c2) | %142
!p! (dB^AB cABe) | (dB^AB cABe) | (dB^AB cABg) | (f^ABf) (fABb) | (b2 c2) z2 c2 | z2 c2 z (C^GB) | %148
!f! A2 z2 z4 | z8 | z8 | z8 | z (=CB,E) (!>!E2 ^D) z | z2 B2 z (B,FA | G2) G2 (=c4 | B2) G2 (e4 | %156
 d2) (G2 !>!=c4) | z2 (B2 !>!e4) | z (GFG AFG_B) | (A=FEF GEF_A) | (_A=FAB) (BABd) | %161
 (dBd=f) (fdf_a) |!f! _a8- | a2 =f2 d2 B2 | _A2 =F2 D2 B,2 | %165
 =C/D/E/=F/ G/A/B/=c/ d/e/!<(!=f/g/ a/b/=c'/d'/!<)! |!f! e'3 d' =c'3 g | e3 d =c3 G | %168
 E2 E>E (TE3 D/E/ | G4) z2!p! (E/G/=c/e/ | g).=f.e.c .A.G.E.C | .A,(ED).C (G=F).E._B | %172
 .A(Ge).d (cg).=f.e | ._b(ge).d .c2!f! (d/f/a/d'/ | f'3) e' d'3 a | f3 e d3 A | F2 F>F (TF3 E/F/ | %177
 d4) z2!p! (F/A/d/f/ | a).g.f.^d .B.A.F.^D | .B,(FE).^D (AG).F.=c | .B(Af).e (^df).d.f | %181
 (ba).g.f .e.d.c.B |!p! (c'b).^a.g .f.e.d.c | .B.F (D/F/B/d/ f).d (B/d/f/b/ | d').c'.b.a .g.f.e.d | %185
 .c.A (E/A/c/e/ a).e (c/e/a/c'/ | e').d'.c'.b .a.g.f.e | .a.g.f.e .d.=c.B.A | G z!p! d2 g4- | %189
 g2 f2 =c'4 | z2 f2 a4- | a2 ^g2 d'4- | d'2 ^ga b2 e2 |!f! e'2 (E/A/=c/e/ a2) .A2 | %194
 z2 (^G/B/e/^g/ b2) .G2 | z2 (B,/E/^G/B/ e2) .E2 | z2 (^A/c/e/^a/ c'2) .A2 | %197
 z2 (^A,/C/E/G/ F2) .f2 | b4- b.^a.b.c' | .d'.^a.b.c' .d'.c'.d'.e' |!f! f'3 c' ^a3 g | f3 c ^A3 G | %202
 F4 z4 | z4 z2!f! (d/f/b/d'/ | f'3) c' ^a3 g | f3 c ^A3 G | F3 F A3 =c | ^d3 f a3 =c' | %208
 b3 ^g =f3 d | B3 ^G =F3 B, | _B,3 E G3 _B | c3 e g3 _b | a3 f ^d3 B | A3 F ^D3 ^B, |!pp! C8- | %215
 C2 z2 z4 | a3 f ^d3 ^B | A3 F ^D3 ^B, | C8- | (C8 | ^B,8-) | B,2 z2 z4 |!pp! A,3 B, C3 D | %223
 E3 F G3 ^G | A4 z2 (A,/C/E/A/ | c) z z2 z2 (A,/C/E/G/ | A3) B c3 d | e3 f g3 ^g | %228
 a2 (C/E/A/c/ e2) (E/A/c/e/ | a2) (A/c/e/a/ c'2) (d/f/a/d'/ |!ff! f'3) e' d'3 a | f3 e d3 A | %232
 B2 B>B (TB3 A/B/) | c4 z2 (F/A/c/f/ | a3) ^g f3 c | A3 ^G F3 C | D2 D>D (TD3 C/D/) | %237
 B4 z2!<(! (G/B/d/g/!<)! |!f! b3) a g3 f | e3 d' c'3 b | (a2 g>)e (A2 G>)E | D2 z2 z4 | %242
 z4 z2 z!p! (F | EGFD CEDB, | A,2) (C2 D2 B2 | A)(FEF GEF) z | z (AFD CED) z | a8- | %248
!<(! a2 (^a2!<)!!>(! b2 g2)!>)! | (fdcd !>!ecdg) | (fdcd !>!ecdg) | (fdcd !>!ecdb) | %252
 (bcdb) (acda) | ^g4!p! d'4 | (c'2 a2 ^g2 b2) | a4 z4 | z8 | z (dc!<(!d ecdd')!<)! | (d'4 g4) | %259
 z (dc!<(!d ecdd')!<)! | (d'4 g4) | z!p! (dcd ecda) | (a2 ^g) z z (^de=g) | (g2 f) z z (cdf) | %264
 (f2 e) z z (EAc) | d2 z2 z4 | z!<(! (dcd ecdd')!<)! |!p! (d'c'ba bage) | (d4{/c} f3 e) | %269
 d2 z2 z2!pp! F2 | (B4 F2) d2 | (d4 c2) ^A2 | (.B2 F2 .B2 .d2) | (d4 c2) ^A2 | (.B2 F2 .B2 .d2) | %275
 (f4 e2) d2 |!p! d2 (d2 e2 c2) | d4 z2!pp! F2 | (B4 F2) d2 | (d4 c2) ^A2 | (.B2 F2 .B2 .d2) | %281
 (d4 c2) ^A2 | B2!<(! (.B2 .d2 .f2)!<)! | (a4 g2) e2 |!pp! (.B4 .c4 | .d4 .e4 | .f4 .g4 | a8) | %288
 z4 z2!p! (^G/B/d/^g/ | b3) a ^g3 e | =f4 z2 (B/d/^g/b/ | d'3) =c' b3 ^g | a4 z2 (=F/A/=c/=f/ | %293
 a3) g =f3 =c | a3 g e3 c | A3 B!p! (AG).E.F | (DF).A.d (cB).G.A | (FA).d.f (ed).B.c | %298
!f! (Ad).f.b a3 c | d3 f!p! (ag).e.f | (df).a.d' (c'b).g.a | (fa).d'.f' (e'd').b.c' | %302
 .a!f!(ad').f' a'3 c' | d'2 z2 z2!f! (F/A/d/f/ | ag).e.c .A.G.F.E | D2 z2 z2 (F/A/d/f/ | %306
!p! ag).e.c (Ac).e.g | .c2 z2 z2 (A/c/e/g/ | !>!ag).e.c (Ac).e.g | .c2 z2 z2 (e/g/a/c'/ | %310
 !>!d'=c').a.f (df).a.c' | f2 z2 z2 (d/f/a/=c'/ | !>!d'=c').a.f d2 (d/f/a/c'/ | %313
 !>!d'=c').a.f d2 (d/f/a/c'/ | d'2) d3 .e.d.=c | .B.=c.B.A .G.F.G.A | B2 b3 .=c'.b.a | %317
 .g.a.g.f .e.f.e.d | .c.d.e.^G!f! A2 a2- | a._b.a!f!.g .=f.e.f.g | .a.g.=f.e .d.c.d.e | %321
 .=f.A.a.g .f.e.d.c | .d.A._B.A BAGF | GD_ED E=FG!f!_A | G=F_E=c _B_AG_e | _e_B g3 =fed | %326
 c2 g3 =fed | c2 _b3 e=fg | c4- c.E.F.G | A,4- A,/E/F/G/ A/B/c/d/ | %330
 e/d/c/B/ A/B/c/d/ e/f/g/a/ b/c'/d'/e'/ |!ff! f'3 e' d'3 a | f6 (d/f/b/d'/ | f'3) e' d'3 a | %334
 f6 (F/B/d/f/ | a4) a4 | a4- a(b/c'/ d'/e'/f'/g'/) | a'4 a'4 |!f! a'3 f' d'3 b | a3 f d3 B | %340
 A3!p! F D3 G | F4 (F3 E) | D4 z2!f! (d/f/a/d'/ | f'3) e' d'3 a | f6 (d/f/b/d'/ | f'3) e' d'3 a | %346
 f6 (F/B/d/f/ | a4) a4 | a4- a(b/c'/ d'/e'/f'/g'/) | a'4 a'4 |!f! a'3 f' _e'3 =c' | a3 f _e3 =c | %352
 A3!p! F D3 G | F4 (F3 E) | D(DCD ECDG | F)(DCD ECDB | A)(dcd ecdg | f)(dcd ecdb | a)(dcd ecd^g | %359
 a)(egf geag |!f! f2) a2 (d'4- | d'2 c'2 b2 a2) | (a2 f).d (d'4 | (c')A=c')(A b)(A_b)(A | %364
 a)(Aa)(A ^g)(A=g)(A | f2) (b2 a2) [Ec]2 |!ff! .[Dd]2 .D2 z2 (D/F/A/d/ | f2) .F2 z2 (F/A/d/f/ | %368
 a2) .A2 z2 (F/A/d/f/ | a2) (A/d/f/a/ d'2) (d/f/a/d'/ | f'3) e' d'3 a | f3 e d3 A | F3 E D3 (A, | %373
 [Ddb]2) z2 [A,Ec]2 z2 | [A,Fd]2 z2 !fermata!z4 |] %375
V:2
!f! [DA]4 [DA]4 |: [DA]4 [DA]4 | [DA]4 [DA]4 | ^G4 G4 | [^GB]6 [FA]2 | [FA]4 [FA]4 | [FA]4 [FA]4 | %7
 [A,D]4 [A,D]4 | [DE]4 [DE]4 | [GB]4 [GB]4 | B4 B4 |!f! A2 z2 C2 z2 | D!p!(DCD ECDF | %13
 GE!<(!FA BGAd)!<)! |!>(! (cedB A!>)!cBG | FAGE DFEC) | D2 z2 z2 z (D | ECDF!<(! GEFB)!<)! | %18
!>(! (AcBG!>)! FAGE) | (D2 C2) z4 | z2 D2 (G3 D) | (D2 F2) (G3 D) | (D2 F2) (G3 D) | %23
 (F3 D) (^E3 D) | z!f! (F^EF GEFB) | (^AF^EF GEFB) | (cF^EF GEFB) | (^AF^EF GEFB) | %28
 z!pp! (F^EF ^G2 E2) | z (F^EF ^G2 E2) | z8 | z8 | z8 | z8 | z8 |!f! !>!A,6 [A,A]2 | %36
!f! [DA]4 [DA]4 | [DA]4 [DA]4 | [DA]4 [DA]4 | ^G4 G4 | [^GB]6 [FA]2 | [FA]4 [FA]4 | [^GB]4 [GB]4 | %43
 [FA]4 [FA]4 | !>![^GB]3 .C .C.C.C.C | C2 z2 z2!f! (C/F/A/c/ | dc).B.A .^G.D.B,.^G, | %47
 A,>B,C>D E2 z2 | z4 z2 (^G/B/e/^g/ |!ff! af).e.d (cB).A.^G | (FE).D.=C .B,.A,.^G,.B, | %51
 E z!p! E2 E2 E2 | (E4 ^D4) | z2 E2 E2 B,2 | (C4 B,4- | B,)!p!(E^DE FDE^G- | G)(F^EF =GEFA- | %57
 A)(^GFG AFGB) |!p! A2 z2 z4 | z (AGA BGAd) | (!>!d4 c4) | z (A^GA BGAd) | (d4 c4) | %63
 z!p! (^GAe) (e2 d) z | z (^GBd) (d2 c) z | z (B,FB) (A2 ^G) z | z (CB,C DB,CE) | (E2 ^D2 E2 F2) | %68
!p! (E2 ^G2 A4- | A)(E^DE =DEDE) | C4 z2!pp! C2 | (.A,4 .A,2 .A,2) | B,6 B,2 | %73
 (.A,2 .A,2 .A,2 .A,2) | B,6 B,2 | A,2!<(! (.A,2 .C2 .F2)!<)! | F8 | (E2 C2 D2) D2 | C4 z2!pp! C2 | %79
 (.A,4 .A,2 .A,2) | B,6 B,2 | (.A,2 .A,2 .A,2 .A,2) | B,6 B,2 | (.A,2!<(! .C2 .F2 .A2)!<)! | %84
 A6 F2 |!pp! (.D4 .D4 | .C4 .F4 | .E4 .A4) | (A8 |!pp! =c4) c4 | =c2 z2 z4 | ^d4 d4 | ^d2 z2 z4 | %93
 [G=c]4 [Gc]4 | [G=c]4 [Gc]4 | [Be]4 [Be]4 | [Be]2 z2 z4 |!p! [CE]4 D2 z2 | [EA]4 F2 z2 | %99
!f! [ce]4 [Be]4 | [ce]4!p! (BE).E.E | (EA).c.e (d^G).G.G | (Ac).e.a (aB).B.B |!f! (ce).a.a ^g3 E | %104
 A3 B c3 c | d4 z2!f! (A,/C/E/A/ | E3) ^G A3 A | ^G2!p! (E/G/B/d/ ed).B.G | (E^G).B.d .G2 z2 | %109
 z2 (E/^G/B/d/ !>!ed).B.G | (E^G).B.d .G2 (B,/E/G/B/ | e2) E3 .D.C.B, | .A,.B,.C.D .E.^G,.A,.B, | %113
 .C.B,.C.D!f! .E.A.G.F | .E.^D.E.F .G!f!.B,.C.=D | .E.^G,.A,.B, .C.E.F.G |!ff! !>!_B,4 z .E.F.G | %117
 !>!G,6 z2 | z8 |!f! [DA]4 [DA]4 :| =C4 C4 | =C4 C4 | =C2 z2 z4 |!f! =C2 C>C (TC3 B,/C/) | %124
 [=C_E]4 [CE]4 |!>(! [=C_E]4 [CE]4!>)! | =C2 z2 z4 |!p! E2 E>E (TE3 D/E/ | A,8) | %129
 E2 E>E (TE3 D/E/ | A,2) z2 z2 z!p! (D | ECDF GEFA) | (GEFA GFEF) | (E4 D4) | z4 z2 z (G | %135
 AFGB =cABd) | (=cedB AcBG) | F8 | z (E^DE FDEG) | (AFGB =cABd) | (cedB ^AcBG) | (F2 D2 C2 E2) | %142
!p! (D2 F2) (E3 B,) | (B,2 D2) (E3 B,) | (B,2 D2) G3 B, | B,3 [FB] [FB]3 f | ^e2 z2 z (DC^G) | %147
 (!>!^G2 F) z!f! (A2 G) z | z!p! (dcd ecdg) | (fdcd ecdg) | (fdcd ecdb) | (bc^db) (bdeb) | %152
 (a2 B2) z2 B2 | z (FEB)!f! (!>!B2 A) z | z2!p! B,2 (E3 G) | (G2 B,2) (=C4 | B,)(GFG !>!AFG=c) | %157
 (BGFG !>!AFGe | d2) (D2 C4) | z2 (D2 B,4- | B,2) z _A (A=FAB) | (B_ABd) (dBd=f) | %162
!f! (=fBdf) (fBdf) | =f2 z2 z4 | z8 | z8 |!f! [E=c]4 [Ec]4 | [E=c]6 (E/G/c/e/ | g3) =f e3 =c | %169
 G3 =F E3!p! E | [CE]4 z4 | z8 | z4 z2!p! (C/E/A/c/ | e) z z2 z4 |!f! [FA]4 [FA]4 | %175
 [FA]4 [FA]2 (F/A/d/f/ | a3) g f3 d | A3 G F3!p! D | ^D4 z4 | z4 z2 (B,/^D/F/A/ | B) z z2 z4 | %181
 z2!pp! (B,/E/G/B/ e4-) | e8- | e2 (f2 d4- | d2) (e!pp!f g4- | g2) (c2 e4- | e2) (fg a4- | %187
 a2) z2 z2!p! (B,/D/G/B/ | d).=c.B.A .G.F.E.D | .=C.D.C.B, .C.B, (A,/C/F/A/ | =c).B.A.G .F.E.D.=C | %191
 .D.E.D.=C .D.C (B,/D/^G/B/ | d).=c.B.A .^G.=F.E.G |!f! .A2 z2 z2 A,/=C/E/A/ | B6 (=f2 | %195
 e6) E/F/E/F/ | G6 (g2 | f2) c2 f4- | f.e.d.c .B.c.B.^A | .B.c.B.^A .F.G.F.E |!f! C4 z4 | %201
 z4 z2!f! (D/F/B/d/ | f3) e d3 c | B3 F F3 ^E | F4 z4 | z8 | a3 f ^d3 .=c | A3 F ^D3 A, | %208
 ^G,3 B, D3 =F | ^G3 B d3 =f | e3 c _B3 G | E3 G c3 e | ^d3 ^B A3 F | ^D3 ^B, A,3 A, | %214
!pp! A,3 A, A,3 A, | A,3 A, A,3 A, | A,8- | A,8 | !>!c3 A F3 C | A,3 A, A,3 A, | A,8- | A,8 | %222
!pp! (.A,.A,.A,.A, .A,.A,.A,.A,) | (.A,.A,.A,.A, .A,.A,.A,.A,) | (.C.C.C.C .C.C.C.C) | %225
 (.C.C.C.C .C.C.C.C) | E/E/E/E/ E/E/E/E/ E4 | E4 E4 | [GA]4 [GA]4 | [GA]4 [GA]4 |!ff! [DA]4 [DA]4 | %231
 [DA]4 [DA]4 | ^G2 G>G G2 G2 | [^GB]6 [FA]2 | [FA]4 [FA]4 | C4 C4 | [A,D]4 [A,D]4 | %237
!<(! [B,D]4 [B,D]4!<)! |!f! [B,D]3 E E3 E | E3 E E3 E | [EA]2 z2 C2 z2 | D!p!(DCD ECDF | %242
 GEFA BGAd) | (cedB AcBG | FAGE DFEC) | D2 z2 z2 z (D | ECDF GEFA) | (GBAF EGFD) | C4 z4 | %249
 z2 D2 (G3 D) | (D2 F2) (G3 D) | (D2 F2) (G3 D) | D8 | z (E^DE FDEB) | (AE^DE FDE^G) | A2 z2 g4 | %256
 (f2 d2 c2 e2) | d4 z4 | z (dc!<(!d ecdg)!<)! | (g4 f4) | z (dc!<(!d ecdg)!<)! | (g4 f4) | %262
 z!p! (cda) (a2 g) z | z (dcg) (g2 f) z | z (dBe) (d2 c) z | z!<(! (FEF GEFA)!<)! | (A4 ^G4) | %267
!p! (G2 EC D2) (BG) | (FA^GA =GAGA) | F2 z2 z2!pp! F2 | (.D4 .D2 .D2) | E6 E2 | (.D2 .D2 .D2 .F2) | %273
 E6 E2 | (.D2 .D2 .D2 .F2) | (!>!A4 G2) F2 |!p! (F4 G4) | F4 z2!pp! F2 | (.D4 .D2 .D2) | E6 E2 | %280
 (.D2 .D2 .D2 .F2) | E6 E2 | D2!<(! (.D2 .F2 .A2)!<)! | (=c4 B2) G2 |!pp! (E4 G4 | F4 .B4 | %286
 A4 .d4) | (d8 |!pp! [d=f]4) [df]4 | [d=f]2 z2 z4 | [d=f]4 [df]4 | [d=f]2 z2 z4 |!p! [A=c]4 [Ac]4 | %293
 [A=c]4 [Ac]4 | [GA]4 [GA]4 | E2 z2 z4 |!p! [A,D]4 G,2 z2 | [A,F]4 B,2 z2 |!f! [Fd]4 [Ec]4 | %299
 [Dd]2 z2!p! (EA,).A,.A, | (A,D).F.A (GC).C.C | (DF).A.d (BE).E.E |!f! [FA]4 [EA]4 | D3 E F3 F | %304
 G4 z4 | d3 e f3 d | c2!p! (E/G/A/c/ ec).A.G | (EG).A.c .e2 z2 | z2 (E/G/A/c/ !>!ec).A.G | %309
 (EG).A.c .e2 z2 | z2 (D/F/A/=c/ !>!dc).A.F | (DF).A.=c F2 z2 | (!>!d=c).A.F D2 (D/F/A/c/ | %313
 !>!d=c).A.F D2 (D/F/A/c/ | d2) D3 .E.D.=C | .B,.=C.B,.A, .G,2 z2 | B,2 B3 .=c.B.A | %317
 .G.A.G.F .E.F.E.D | .C.D.E.^G, A,2 z2 | z4!f! A,2 A2- | A._B.A.G .=F.E.F.G | .A.G.=F.E .D.C.D.E | %322
 .=F.G.F.E D2 z _E | D2 z =C _B,2 z2 | z2 z =C!f! _B,_A,G,_E | _E_B, G3 =FED | C2 G3 =FED | %327
 C2 _B3 E=FG | C4- C.E.F.G | A,4 z4 |!<(! [CE]8 |!ff! D6!<)! (D/F/A/d/ | f3) e d3 B | %333
 F6 (D/F/A/d/ | f3) e d3 B | g3 f e3 d | c3 B A3 G | !>!F4 !>!E4 | !>!D6 z2 | z8 | %340
 z2 z!p! C B,3 E | (D4 C4) |!f! D4 D4 | D6 (D/F/A/d/ | f3) e d3 B | F6 (D/F/A/d/ | f3) e d3 B | %347
 A3!f! f e3 d | c3 B A3 G | !>!F4 !>!E4 | _E6 z2 | z8 | z2 z!p! =C B,3 E | (D4 C4) | %354
 D2 (D2 !>!G4) | z2 (F2 !>!B4) | z2 (A2 g4) | z2 (f2 b4) | z2 (a2 !>!d'4- | d'2 c'2 b2 a2) | %360
 (adcd ecd^g | a)(egf geag |!f! f)(dcd ecdb) | (ae)(fa) (^ge=ge) | (fdcd) (=fd)(eA) | %365
!f! (dA)(Bd) (dF)(GA) | [FA]4 [FA]4 | [FA]4 [FA]4 | [FA]4 [FA]4 |!<(! [df]4 [Edf]4!<)! | %370
 [df]2 z2 z4 | z4 z2!ff! (D/F/A/d/ | f3) e d3 A | [EBe]2 z2 [Ec]2 z2 | [Dd]2 z2 !fermata!z4 |] %375
V:3
!f! [A,F]4 [A,F]4 |: [A,F]4 [A,F]4 | [A,F]4 [A,F]4 | F4 F4 | ^E6 [CF]2 | A,2 C2 A,2 C2 | %6
 A,2 C2 A,2 C2 | [F,A,]4 [F,A,]4 | [G,B,]4 [G,B,]4 | [B,D]4 [B,D]4 | [DE]4 [DE]4 | %11
!f! [CE]2 z2 G,2 z2 | F,2 z2 z2 z!p! (D | EC!<(!DF GEFA)!<)! |!>(! (GBAF E!>)!GFD | C4) z4 | z8 | %17
 z4 z2 z (F | EGFD CEDB, | A,)(FEG FDCE | D2) z2 (D,3 D) | (A,2 F,2) (D,3 D) | (A,2 F,2) (G,3 D) | %23
 (D3 B,) (D3 B,) | F2 z2 (B,4 | F2) z2 (!>!D4 | C2) ^A,2 (B,4 | F,2) z2 (D4 | C2) z2!pp! (B,4 | %29
 ^A,2) z2 (B,4 | ^A,2) z2 z4 | z8 | z8 | z8 | z8 |!f! !>!A,6 [A,G]2 |!f! [A,F]4 [A,F]4 | %37
 [A,F]4 [A,F]4 | [A,F]4 [A,F]4 | F4 F4 | ^E6 C2 | C4 C4 | C4 C4 | C4 C4 | !>!C3 .B, .B,.B,.C.B, | %45
 A,2 z2 z2!f! (A,/C/F/A/ | BA).^G.F .^E.B,.^G,.G, | F,>^G,A,>B, C2 (E,/A,/C/E/ | %48
 FE).D.C .B,.D.B,.^G, |!ff! .E,2 .F,.^G, (A,B,).C.C | (DE).F.F .^G.A.B.B | B2!p! (d2 c2 B2) | %52
 A2 A>A (TA3 ^G/A/ | ^G2) (d2 c2 B2) | A2 A>A (TA3 ^G/A/ | ^G4) z4 | z (A,^G,A, B,G,A,=C- | %57
 C)(B,A,B, =CA,B,^G,) |!p! A,2 z2 z4 | z8 | z2!p! (E,2 A,2 C2) | (F4 =F4) | E4 z4 | z8 | z8 | %65
 z2!p! B,4 B,2 | E(A,^G,A, B,G,A,C) | (C2 B,2 C2 ^D2) |!p! E4 (E2 F2) | C4 z4 | %70
 z2!pp! C,2 !>!C,2 C,2 | (.C,4 .C,2 .C,2) | C,6 C,2 | (.C,2 .C,2 .C,2 .C,2) | C,6 C,2 | %75
 (C,2!<(! F,2 A,2 .C2)!<)! | (E4 D2) C2 | (C2 A,2 ^G,2) B,2 | (A,C,^B,,C, B,,C,B,,C,) | %79
 z (C,^B,,C, z C,B,,C,) | z (C,^B,,C, B,,C,B,,C,) | z!pp! (C,^B,,C, z C,B,,C,) | %82
 z (C,D,C, z C,D,C,) | (C,2!<(! A,2 .C2 .F2)!<)! | (G4 F2) D2 |!pp! (B,4 B,4 | A,4 .D4 | .C4 .F4) | %88
 (E8 |!pp! [FA]4) [FA]4 | [FA]2 z2 z4 | A4 A4 | A2 z2 z4 | [=CE]4 [CE]4 | [=CE]4 [CE]4 | %95
 [DE]4 [DE]4 |!p! [DE]4 [DE]4 | [CE]2 z2 [DE]4 | [CE]2 z2 [FA]4 |!f! A4 ^G4 | A4!p! (ED).D.D | %101
 (CE).A.c (BD).D.D | (EA).c.e (FA).A.A |!f! (Ac).e.c d3 E | E3 ^G A3 A | ^G4 z2!f! (A,/C/E/A/ | %106
 E3) D C3 E | B,2 z2 z2!p! (E/^G/B/d/ | ed).B.^G (EG).B.d | .G2 z2 z2 (E/G/B/d/ | %110
 !>!ed).B.^G (EG).B.d | .^G2 (B,/E/G/B/ e2) E2- | E.D.C.B, .A,.B,.C.D | .E.^G,.A,.B,!f! .C.B,.C.D | %114
 .E.A.G.F .E!f!.^D.E.F | .G.B,.C.D .E.^G,.A,.B, |!ff! .C.E.F.G !>!_B,4 | z .E.F.G !>!A,4 | z8 | %119
!f! [A,F]4 [A,F]4 :| [FA]4 [FA]4 | [FA]4 [FA]4 | [FA]2 z2 z4 |!f! A,2 A,>A, (TA,3 ^G,/A,/) | %124
 (A,2 =C2 A,2 C2) |!>(! (A,2 =C2 A,2 C2)!>)! |!p! (A,2 =C2 A,2 C2) | (G,2 =C2 G,2 C2) | %128
 (A,2 =C2 A,2 C2) | (G,2 =C2 G,2 C2) |!p! A,(DCD ECDF | GEFA BGA=c) | (BGA=c BAGA) | (G4 F4) | %134
 z (G,F,G, A,F,G,B, | =CA,B,D AFGB) | (A=cBG FAGE) | (E4 ^D4) | z4 z2 z (E | F^DEG AFGB) | %140
 (^AcBG FEDB,) | (^A,2 B,2 A,2 F2) | F4 z4 | z8 | z8 | z8 | z (DCF) (!>!F2 ^E) z | %147
 z (^EFc)!f! (!>!c2 B) z | A2!p! A2 (G3 D) | (D2 A2) (G3 D) | (D2 A2) (B4 | A4 G4) | %152
 F2 z2 z (=CB,F) | (!>!F2 E) z (G2 F) z | E(G,F,G, !>!A,F,G,E) | D(G,F,G, !>!A,F,G,E) | (=F4 E4) | %157
 D2 G,2 =C4 | B,2 (B,2 !>!_B,4) | z2 (A,2 !>!F,4- | F,2) z2 z2 z _A | (_A=FAB) (BABd) | %162
!f! (d2 Bd) (d2 Bd) | d2 z2 z4 | z8 | z8 |!f! [G,G]4 [G,G]4 | G6 (=C/E/G/=c/ | e3) d =c3 G | %169
 E3 D =C3!p! G, | E,4 z4 | z4 z2!p! (E,/A,/C/E/ | A) z z2 z4 | z2 (E,/A,/C/E/ A) z z2 | %174
!f! [A,D]4 [A,D]4 | [A,D]4 [A,D]2 (D/F/A/d/ | f3) e d3 A | F3 E D3!p! A, | [F,A,]4 z4 | z8 | %180
 z4 z2 (A,/=C/B,/A,/ | G,) z z2 z2!pp! (G2 | F2) (C2 F4- | F2) (F2 B4- | B2) (c!pp!d e4- | %185
 e2) (A2 c4- | c2) (de f2 c2) | (d2 A2 F2)!p! (G,/B,/D/G/ | B).A.G.F .E.D.=C.B, | %189
 A,2 z2 z2 (F,/A,/D/F/ | A).G.F.E .D.=C.B,.A, | B,2 z2 z2 (^G,/B,/D/^G/ | B).A.^G.=F .E.D.=C.B, | %193
!f! A,2 A,2 A4- | A2 B,/D/^G/B/ d4 | z2 ^G2 B4- | B2 E/G/^A/c/ e4 | z2 ^A2 .c.e.d.c | %198
 .B.B.A.G .F.G.F.E | .D.G.F.E .D.E.D.B, |!f! ^A,4 z4 | z4 z2!f! (F,/B,/D/F/ | B3) ^A B3 A | %203
 F3 D C3 B, | ^A,4 z4 | z8 | z8 | z8 |!mf! !>!=f3 d B3 ^G | =F3 D B,3 ^G, | G,3 _B, E3 G | %211
 G3 C _B,3 G, | F,8- | F,2 z2 z4 |!pp! F,3 F, F,3 F, | F,3 F, F,3 F, | F,8- | F,8 | %218
!pp! A3 F C3 A, | F,3 C, F,3 C, | F,8- | F,8 | %222
!pp! (.[E,G,].[E,G,].[E,G,].[E,G,] .[E,G,].[E,G,].[E,G,].[E,G,]) | %223
 (.[E,G,].[E,G,].[E,G,].[E,G,] .[E,G,].[E,G,].[E,G,].[E,G,]) | %224
 (.[E,G,].[E,G,].[E,G,].[E,G,] .[E,G,].[E,G,].[E,G,].[E,G,]) | %225
 (.[E,G,].[E,G,].[E,G,].[E,G,] .[E,G,].[E,G,].[E,G,].[E,G,]) | %226
 [G,A,]/[G,A,]/[G,A,]/[G,A,]/ [G,A,]/[G,A,]/[G,A,]/[G,A,]/ [G,A,]4 | [G,A,]4 [G,A,]4 | %228
 [CE]4 [CE]4 | [CE]/[CE]/F/F/ E/E/D/D/ C/C/E/E/ A/A/G/G/ |!ff! [A,F]4 [A,F]4 | [A,F]4 [A,F]4 | %232
 F2 F>F F2 F2 | ^E6 C2 | C4 C4 | A,4 A,4 | [F,A,]4 [F,A,]4 |!<(! [G,D]4 [G,D]4!<)! | %238
!f! [G,D]3 [B,D] [B,D]3 [B,D] | [B,D]3 [B,D] [B,D]3 [B,D] | C2 z2 G,2 z2 | F,2 z2 z2 z!p! (D | %242
 ECDF GEFA | GBAF EGFD | C2) z2 z4 | z (DCD ECDF | GEFA BGAd) | (cedB AcBG | FAGE DFEC | %249
 D2) z2 (D,3 D) | (A,2 F,2) (D,3 D) | (A,2 F,2) B,3 B, | B,8- | B,2 z2 z4 | z8 | %255
 z (A,^G,A, B,G,A,E) | (DA,^G,A, B,G,A,C) | D4 z4 | z (DC!<(!D ECDG)!<)! | (G4 F4) | %260
 z (DC!<(!D ECDG)!<)! | (G4 F4) | z4!p! [CE]4- | [CE]4 [B,D]4- | [B,D]4 A,4- | A,2 z2 z4 | %266
 (F4 E4- | E2)!p! (G,2 F,2 G,2) | A,4 A,4 | (D2!>(! F,2) F,2!>)!!pp! F,2 | (.F,4 .F,2 .F,2) | %271
 F,6 F,2 | (.F,2 .F,2 .F,2 .F,2) | F,6 F,2 | (.F,2 .F,2 .F,2 .B,2) | !>!B,8 | z2!p! (A,2 C2 E2) | %277
 D4 z2!pp! F,2- | F,(F,^E,F, z F,E,F,) | z (F,^E,F, E,F,E,F,) | z (F,^E,F, z F,E,F,) | %281
 z (F,G,F, G,F,G,F,) | F,2!<(! (.D2 .D2 .D2)!<)! | D6 z2 | z4!pp! (.E4 | .D4 .G4 | .F4 .B4) | (A8 | %288
!pp! B4) B4 | B2 z2 z4 | ^G4 G4 | ^G2 z2 z4 |!p! =F4 F4 | =F4 F4 | E4 E4 | [G,A,]4!p! [G,A,]4 | %296
 [F,A,]2 z2 [G,A,]4 | [F,A,]2 z2 [B,D]4 |!f! [FA]4 [GA]4 | [FA]4!p! (EG,).G,.G, | %300
 (F,A,).D.F (GG,).G,.G, | (A,D).F.A (BD).D.D |!f! D4 C4 | A,3 C D3 D | C4 z4 | A3 c d3 F | %306
 E4 z2!p! (A,/C/E/G/ | AG).E.C (A,C).E.G | .C2 z2 z2 (A,/C/E/G/ | !>!AG).E.C (A,C).E.G | %310
 F2 z2 z2 (D/F/A/=c/ | !>!d=c).A.F (DF).A.c | F2 (D/F/A/=c/ !>!dc).A.F | D2 z2 z4 | %314
 z2 (A,/D/F/A/ d2) D2- | D.E.D.=C .B,.C.B,.A, | .G,.F,.G,.A, B,2 B2- | B.=c.B.A .G.A.G.F | %318
 .E.F.E.D .C.D.E.^G, | A,2 z2 z4 |!f! A,2 A2- A._B.A.G | .=F.E.F.G .A.G.F.E | .D.C.D.E =FCD=C | %323
 D=C_B,A, B,_A,G,=F, | _E,=F,!f!G,_A, G,F,E,=C | _B,_A,G,_E EB, G2- | G=F_ED C2 G2- | %327
 G=FED C2 _B2- | B.E.=F.G C4- | C.E,.F,.G, C,2 z2 |!<(! [G,A,]8 |!ff! [F,A,]4!<)! [F,A,]4 | D4 D4 | %333
 [A,D]4 [A,D]4 | [A,D]2 C2 D2 F2 | E3 A B3 A | G3 F E3 D | !>!D4 !>!C4 | !>!A,6 z2 | z8 | %340
 z2 z!p! ^A, B,3 B, | (A,4 G,4) |!f! [F,A,]4 [F,A,]4 | [F,A,]4 [F,A,]4 | D4 D4 | [A,D]4 [A,D]4 | %346
 D2 C2 B,2 ^G2 | A3!f! c B3 A | G3 F E3 D | !>![=C_E]4 !>!C4 | =C6 z2 | z8 | z2 z!p! A, G,3 B, | %353
 (A,4 G,4) | F,4 z4 | z4 (G4 | F4) z4 | z4 (G4 | F4 =F4) | (E2 e4) e2 | (dFEF GE=FD) | %361
 A,2 (E^D) (EG)(EA,) |!f! F4 =F4 | (Ee^dA) (e=dce) | (AFED) (D=F)(AE) |!f! (AF)(EB) (FA)(EG) | %366
 [A,F]4 [A,D]4 | [A,D]4 [A,F]4 | [A,F]4 [A,F]4 |!<(! [FA]4 [FA]4!<)! | [FA]2 z2 z4 | %371
 z4 z2!ff! (D/F/A/d/ | f3) e d3 A | B2 z2 [GA]2 z2 | [FA]2 z2 !fermata!z4 |] %375
V:4
 x8 |: x8 | x8 | x8 | x8 | x8 | x8 | x8 | x8 | x8 | x8 | x8 | x8 | x8 | x8 | x8 | x8 | x8 | x8 | %19
 x8 | x8 | x8 | x8 | x8 | x8 | x8 | x8 | x8 | x8 | x8 | x8 | x8 | x8 | x8 | x8 | x8 | x8 | x8 | %38
 x8 | x8 | x8 | x8 | x8 | x8 | x8 | x8 | x8 | x8 | x8 | x8 | x8 | x8 | x8 | x8 | x8 | x8 | x8 | %57
 x8 | x8 | x8 | x8 | x8 | x8 | x8 | x8 | x8 | x8 | x8 | x8 | x8 | x8 | x8 | x8 | x8 | x8 | x8 | %76
 x8 | x8 | x8 | x8 | x8 | x8 | x8 | x8 | x8 | x8 | x8 | x8 | x8 | x8 | x8 | x8 | x8 | x8 | x8 | %95
 x8 | x8 | x8 | x8 | x8 | x8 | x8 | x8 | x8 | x8 | x8 | x8 | x8 | x8 | x8 | x8 | x8 | x8 | x8 | %114
 x8 | x8 | x8 | x8 | x8 | x8 :| x8 | x8 | x8 | x8 | x8 | x8 | x8 | x8 | x8 | x8 | x8 | x8 | x8 | %133
 x8 | x8 | x8 | x8 | x8 | x8 | x8 | x8 | x8 | x8 | x8 | x8 | x8 | x8 | x8 | x8 | x8 | x8 | x8 | %152
 x8 | x8 | x8 | x8 | x8 | x8 | x8 | x8 | x8 | x8 | x8 | x8 | x8 | x8 | x8 | x8 | x8 | x8 | x8 | %171
 x8 | x8 | x8 | x8 | x8 | x8 | x8 | x8 | x8 | x8 | x8 | x8 | x8 | x8 | x8 | x8 | x8 | x8 | x8 | %190
 x8 | x8 | x8 | x8 | x8 | x8 | x8 | x8 | x8 | x8 | x8 | x8 | x8 | x8 | x8 | x8 | x8 | x8 | x8 | %209
 x8 | x8 | x8 | x8 | x8 | x8 | x8 | x8 | x8 | x8 | x8 | x8 | x8 | x8 | x8 | x8 | x8 | x8 | x8 | %228
 x8 | x8 | x8 | x8 | x8 | x8 | x8 | x8 | x8 | x8 | x8 | x8 | x8 | x8 | x8 | x8 | x8 | x8 | x8 | %247
 x8 | x8 | x8 | x8 | x8 | x8 | x8 | x8 | x8 | x8 | x8 | x8 | x8 | x8 | x8 | x8 | x8 | x8 | x8 | %266
 x8 | x8 | x8 | x8 | x8 | x8 | x8 | x8 | x8 | x8 | x8 | x8 | x8 | x8 | x8 | x8 | x8 | x8 | x8 | %285
 x8 | x8 | x8 | x8 | x8 | x8 | x8 | x8 | x8 | x8 | x8 | x8 | x8 | x8 | x8 | x8 | x8 | x8 | x8 | %304
 x8 | x8 | x8 | x8 | x8 | x8 | x8 | x8 | x8 | x8 | x8 | x8 | x8 | x8 | x8 | x8 | x8 | x8 | x8 | %323
 x8 | x8 | x8 | x8 | x8 | x8 | x8 | x8 | x8 | A,2 ^A,2 B,4 | x8 | x8 | x8 | x8 | x8 | x8 | x8 | %340
 x8 | x8 | x8 | x8 | A,2 ^A,2 B,4 | x8 | x8 | x8 | x8 | x8 | x8 | x8 | x8 | x8 | x8 | x8 | x8 | %357
 x8 | x8 | x8 | x8 | x8 | x8 | x8 | x8 | x8 | x8 | x8 | x8 | x8 | x8 | x8 | x8 | x8 | x8 |] %375
V:5
!f! .D,2 .D,,2 z4 |: .D,2 .D,,2 z4 | .D2 .D,2 z4 | D2 D>D D2 D2 | .C2 .C,2 z4 | .F,2 .F,,2 z4 | %6
 z8 |!mf! F,2 F,>F, F,2 F,2 | G,2 G,,2 z4 | G,4 G,4 | ^G,4 G,4 |!f! A,2 z2 A,,2 z2 | D,,2 z2 z4 | %13
 z4 z2 z!p! (F | EGFD CEDB, | A,2) z2 A,,2 z2 | z (D,C,D, E,C,D,F, | G,E,F,A,!<(! B,G,A,D)!<)! | %18
!>(! (CEDB,!>)! A,CB,G, | F,A,G,E, D,F,E,C, | D,2) F,2 (B,,4 | A,,2) D,2 (B,,4 | A,,2) D,2 (B,,4 | %23
 A,,4 G,,4) | F,,4 z4 | z4 (!>!B,4 | F,2) z2 z4 | z4 (B,,4 | F,,2) z2!pp! C,4- | C,2 z2 (C,4 | %30
 F,2) z2 z4 | z8 | z8 | z8 | z8 |!f! A,2 .G,.E, .C,.A,,.G,,.E,, | .D,,2 .D,2 z4 | .D,2 .D,,2 z4 | %38
 .D2 .D,2 z2 (A,,/D,/F,/A,/ | D2) D>D D2 D2 | .C2 .C,2 z4 | .F,2 .F,,2 z2 (A,,/C,/F,/A,/ | %42
 C3) B, ^G,3 C, | .F,2 .F,,2 z2 (A,,/C,/F,/A,/ | CB,).^G,.^E, .C,.B,,.A,,.^G,, | .F,,2 .F,2 z4 | %46
 z8 | z4 z2!f! (C,/E,/A,/C/ | DC).B,.A, .^G,.B,.G,.D, |!ff! .C,2 .D,.E, (F,^G,).A,.^A, | %50
 (B,C).D.^D .E.F.^G.A | ^G z!p! (^G,2 A,2 G,2) | F,4 B,,4 | E,2 (^G,2 A,2 G,2) | F,4 B,,4 | %55
 E,4 z4 | z8 | z4 z2!p! E,2 | (A,2 E,2 C,2 A,,2) | (F,,4 =F,,4 | E,,4) z4 | z8 | z2 (E,2 A,2 C2) | %63
!p! F,2 z2 ^G,2 z2 | ^E,2 z2 F,2 z2 | ^D,2 z2 =D,2 z2 | C,4 z2 C,2 | (F,4 B,,4) | %68
!p! (E,2 D,2 C,2 D,2) | E,2 z2 E,2 z2 | A,4 z2!pp! C,,2 | (.F,,4 .F,,2 .C,,2) | ^E,,6 C,,2 | %73
 (.F,,2 .F,,2 .F,,2 .C,,2) | ^E,,6 C,,2 | (.F,,2!<(! .F,,2 .F,,2 .F,,2)!<)! | (D,8 | E,8) | %78
 A,,2 z2 z2!pp!!pp! C,2 | (.F,,4 .F,,2 .C,,2) | ^E,,6 C,,2 | (.F,,2 .F,,2 .F,,2 .C,,2) | %82
 ^E,,6 C,,2 | (.F,,2!<(! .F,,2 .F,,2 .F,,2)!<)! | D,6 D,2 |!pp! (.D,4 .E,4 | .F,4 .^G,4 | %87
 .A,4 .B,4) | (C8 |!pp! ^D4) D4 | ^D2 z2 z4 | F4 F4 | F2 z2 z4 | G,2 G,,2 z4 | G,2 G,,2 z4 | %95
 ^G,2 ^G,,2 z4 | z4 z2!p! (^G,2 | A,2) .A,,2 .B,2 .B,,2 | .C2 .C,2 .^D2 .^D,2 |!f! .E2 .E,2 D3 D | %100
 C2 z2!p! (^G,,^G,).G,.G, | (A,E,).C,.A,, (B,,B,).B,.B, | (CA,).E,.C, (^D,^D).D.D | %103
 E4 z2!f! (E,/^G,/B,/D/ | C3) B, A,3 E, | E,4 z2!f! (A,,/C,/E,/A,/ | C3) B, A,3 C | E,4 z4 | %108
 z2!p! (E,/^G,/B,/D/ ED).B,.G, | (E,^G,).B,.D .G,2 z2 | z2 (E,/^G,/B,/D/ !>!ED).B,.G, | %111
 .E,2 (B,,/E,/^G,/B,/ E2) E,2- | E,.D,.C,.B,, .A,,.B,,.C,.D, | .E,.^G,,.A,,.B,,!f! .C,.B,,.C,.D, | %114
 .E,.A,.G,.F, .E,!f!.^D,.E,.F, | .G,.B,,.C,D, .E,.^G,,.A,,.B,, |!ff! .C,.E,.F,.G, !>!_B,,4 | %117
 z .E,.F,.G, !>!A,,4 | z8 |!f! .D,,2 .D,2 z4 :| ^D,,4 D,,4 | ^D,,4 D,,4 | ^D,,2 z2 z4 | %123
!f! E,2 E,>E, (TE,3 D,/E,/) | F,4 F,4 | F,2 z2 z4 |!p! (F,,8 | G,,8) | (F,,8 | G,,8) | F,,2 z2 z4 | %131
 z8 | z8 | z8 | z8 | z8 |!<(! A,8-!<)! | A,2 (^A,2 B,2 F,2) | (G,2 E,2) B,4- | B,2 z2 z4 | F,,8- | %141
 F,,6 (^A,,2 |!p! B,,2 D,2) (G,,4 | F,,2) B,,2 (G,,4 | F,,2) F,2 (E,4 | ^D,4 =D,4) | %146
 C,2 z2 (B,2 C) z | (A,2 C) z (^E,2 C) z |!f! F,2!p! F,,2 (B,,4 | A,,2) F,,2 (B,,4 | %150
 A,,2) F,2 (G,4 | F,4 E,4) | (^D,2 B,,) z (A,,2 B,,) z | (G,,2 B,,) z (^D,,2 B,,) z | %154
!f! E,,2 z2!p! (=C,,4 | G,,4 =C,4) | G,,8- | G,,8- | G,,2 (G,2 !>!E,4) | z2 (=F,2 !>!D,4- | %160
 D,2) z2 z4 | z8 | z8 | z8 | z8 |!f! D=C/B,/ A,/G,/=F,/E,/ D,/=C,/B,,/A,,/ G,,/=F,,/E,,/D,,/ | %166
 .=C,,2 .=C,2 z4 | .=C,2 .=C,,2 z2 (G,,/C,/E,/G,/ | _B,2) B,>B, B,2 B,2 | %169
 ._B,2 ._B,,2 z2!p! (B,,2 | A,,4) z2!p! (A,,/C,/E,/A,/ | C) z z2 z4 | z8 | z8 |!f! .D2 .D,2 z4 | %175
 .D,2 .D,,2 z2 (A,,/D,/F,/A,/ | =C2) C>C C2 C2 | =C2 =C,2 z2!p! (C,2 | B,,4) z2 (B,,/^D,/F,/B,/ | %179
 ^D) z z2 z4 | z8 | z8 | z4 z2!p! F,,2 | B,,2 z2 z2 F,2 | B,2 z2 z2 E,,2 | A,,2 z2 z2 E,2 | %186
 A,2 z2 z2 G,2 | F,2 A,2 D2 z2 | z2!p! (B,,/D,/G,/B,/ D) z z2 | z2 (A,,/=C,/D,/F,/ A,) z z2 | %190
 z2 (=C,/D,/F,/A,/ =C) z z2 | z2 (B,,/D,/E,/^G,/ B,) z z2 | z4 z2!f! (E,/^G,/B,/D/ | %193
 =C).B,.A,.G, .=F,.E,.D,.=C, | .B,,.=C,.D,.E, .=F,.D,.B,,.D | .D!mp!.=C.B,.A, .^G,.=F,.E,.D, | %196
 .C,.D,.E,.F, .G,.E,.C,.E | .E.D.C.B, .^A,.G,.F,.E, | .D,.G,.F,.E, .D,.E,.D,.C, | %199
 .B,,.E,.D,.C, .B,,.^A,,.B,,.G,, |!f! F,,4 z4 | z4 z2!f! (B,,/D,/F,/B,/ | D3) C B,3 F, | %203
 D,3 B,, A,,3 G,, | F,,8- | F,,4 E,,4 | ^D,,8- | D,,8 | D,,8- | D,,8 | C,,8- | C,,2 z2 z4 | %212
 !>!=C3 A, F,3 ^D, | =C,3 A,, F,,3 ^D,, |!pp! C,,8- | C,,8 | ^B,,,8- | B,,,2 z2 z4 | z8 | z8 | %220
!pp! A,3 F, ^D,3 ^B,, | A,,3 F,, ^D,,3 ^B,,, |!>(!!>(! C,,8-!>)! | C,,6!>)! z2 | E,3 D, C,3 B,, | %225
 A,,3 A,, E,,3 D,, | C,,8- |!>(! C,,4!>)! z2 (C,,/E,,/A,,/C,/ | E,3) D, C,3 B,, | %229
 .A,,.D,.C,.B,, .A,,.G,,.F,,.E,, |!ff! .D,,2 .D,2 z4 | .D,2 .D2 z4 | D2 D>D (TD3 C/D/) | %233
 C2 C,2 z4 | F,2 F,,2 z4 | F2 F,2 z4 |!mf! F,2 F,>F, F,2 F,2 | %237
 G,2 G,,2 z2!<(! (D,,/G,,/B,,/D,/!<)! |!f! G,3) G, G,3 G, | ^G,3 G, G,3 G, | A,2 z2 A,,2 z2 | %241
 D,,2 z2 z4 | z8 |!<(! A,8- | A,2!<)!!>(! (^A,2 B,2 G,2) | (F,2 D,2)!>)! A,4- | A,2 z2 z2 z!p! (F | %247
 EGFD CEDB, | A,2) z2 (A,,4 | D,2 F,2) (B,,4 | A,,2) D,2 (B,,4 | A,,2) D,2 G,,4 | G,,4 =F,,4 | %253
 E,,2 z2 ^G,4 | (A,2 C2 B,2 D2) | C2 z2 C,4 | (D,2 F,2 E,2 G,2) | F,2 (A,2 F,2 D,2) | %258
!<(! (B,,4 _B,,4)!<)! | A,,4 z2 =C2 |!<(! (B,4 _B,4)!<)! | A,2 (A,,2 D,2 F,2) |!p! E,2 z2 C,2 z2 | %263
 ^A,,2 z2 B,,2 z2 | ^G,,2 z2 =G,,2 z2 | (F,,!<(!D,C,D, E,C,D,F,)!<)! | (B,4 E,4 | A,2) z2 z4 | z8 | %269
 z4 z2!pp! F,,2 | (.B,,4 .B,,2 .F,,2) | ^A,,6 F,,2 | (.B,,2 .B,,2 .B,,2 .F,,2) | ^A,,6 F,,2 | %274
 (.B,,2 .B,,2 .B,,2 .B,,2) | (G,,8 |!p! A,,8) |!<(! (D,F,^E,F,!<)!!>(! E,F,E,F,)!>)! | %278
!pp! B,,4 (.B,,2 .F,,2) | ^A,,6 F,,2 | (.B,,2 .B,,2 .B,,2 .F,,2) | ^A,,6 F,,2 | %282
 (B,,2!<(! B,,2 .B,2 .A,2)!<)! | G,8- | G,4!pp! (.A,4 | .B,4 .C4 | .D4 .E4 | F8) |!pp! ^G8- | %289
 G2 z2 z4 | B,4 B,4 | B,2 z2 z4 | =C2 =C,2 z4 | =C2 =C,2 z4 | C2 C,2 z4 | z4!p! C,2 C,,2 | %296
 D,2 D,,2 E,2 E,,2 | F,2 F,,2 ^G,2 ^G,,2 |!f! A,4 A,,3 A, | F,3 D,!p! C,2 C,C, | %300
 (D,A,,).F,,.D,, (E,,E,).E,.E, | (F,D,).A,,.F,, (^G,,^G,).G,.G, |!f! A,3 A,, G,2 (A,,/C,/E,/G,/ | %303
 F,3) E, D,3 A,, | A,4 z2 (A,/C/E/G/ | F3) E D3 D, | A,4 z4 | z2!p! (A,,/C,/E,/G,/ A,G,).E,.C, | %308
 (A,,C,).E,.G, .A,2 z2 | z2 (A,,/C,/E,/G,/ !>!A,G,).E,.C, | (A,,D,).F,.A, D2 z2 | %311
 z2 (D,/F,/A,/=C/ !>!DC).A,.F, | (D,F,).A,.=C F,2 z2 | z2 (D,/F,/A,/=C/ !>!DC).A,.F, | %314
 D,2 (A,,/D,/F,/A,/ D2) D,2- | D,.E,.D,.=C, .B,,.C,.B,,.A,, | .G,,.F,,.G,,.A,, B,,2 B,2- | %317
 B,.=C.B,.A, .G,.A,.G,.F, | .E,.F,.E,.D, .C,.D,.E,.^G,, |!f! A,,2 A,2- A,._B,.A,.G, | %320
 .=F,.E,.F,.G, .A,.G,.F,.E, | .D,.C,.D,.E, .=F,.A,,.A,.G, | .=F,.E,.D,.C, D,A,,_B,,A,, | %323
 _B,,A,,G,,F,, G,,D,,_E,,D,, | _E,,=F,,!f!G,,_A,, G,,F,,E,,=C, | _B,,_A,,G,,_E, E,B,, G,2- | %326
 G,=F,_E,D, C,2 G,2- | G,=F,E,D, C,2 _B,2- | B,.E,.=F,.G, C,4- | C,.E,,.F,,.G,, C,,2 z2 | %330
!<(! G,,8 |!ff! F,,2!<)! F,2 z2 (A,/F,/D,/A,,/ |!<(! F,,2) F,,2 G,,2 ^G,,2!<)! | %333
 .A,,2 .A,2 z2 (D/A,/F,/D,/ | A,,2)!<(! ^A,,2 B,,2 D,2!<)! | C,2 z!f! A G3 F | E3 D C3 B, | %337
 !>!A,4 !>!G,4 | !>!F,6 z2 | z8 | z2 z!p! F,, B,,3 E,, | A,,8 | %342
!f! !wedge!D,,2 !wedge!D,2 !wedge!A,,2 !wedge!G,,2 | !wedge!F,,2 !wedge!F,2 z2 (A,/F,/D,/A,,/ | %344
 F,,2)!<(! F,,2 G,,2 ^G,,2!<)! | A,,2 A,2 z2 (D/A,/F,/D,/ | A,,2)!<(! ^A,,2 B,,2 D,2!<)! | %347
 C,2 z!f! A G3 F | E3 D C3 B, | !>!A,4 !>!G,4 | F,6 z2 | z8 | z2 z!p! D,, G,,3 E,, | A,,8 | %354
 z2 D,2 (!>!B,,4 | A,,2) D,2 (!>!G,,4 | A,,2) D,2 (!>!B,,4 | A,,2) D,2 (G,,4 | A,,2) A,2 !>!A,,4- | %359
 A,,2!<(! (^A,,2 B,,2 C,2)!<)! | D,2 A,2 A,,4- | A,,2!<(! (^A,,2 B,,2 C,2)!<)! |!f! D,4 (^G,4 | %363
 A,2) A,4 A,2- | A,2 !wedge!A,,2 !wedge!B,,2 !wedge!C,2 |!f! !wedge!D,2 (G,2 A,2) !wedge!A,,2 | %366
 !wedge!D,2 (D,,/F,,/A,,/D,/) F,4- | F,2 (F,,/A,,/D,/F,/) A,4- | A,2 (A,,/D,/F,/A,/) D4- | %369
 D.F.D.A, .F,.D,.A,,.F,, | .D,,2 z2 z4 | z4 z2!ff! (D,/F,/A,/D/ | F3) E D3 A, | ^G,2 z2 A,,2 z2 | %374
 D,,2 z2 !fermata!z4 |] %375

